svgs/sharp-regular/briefcase-arrow-right.svg

<svg xmlns="http://www.w3.org/2000/svg" viewBox="0 0 512 512"><!--! Font Awesome Pro 6.6.0 by @fontawesome - https://fontawesome.com License - https://fontawesome.com/license (Commercial License) Copyright 2024 Fonticons, Inc. --><path d="M128 0l24 0L360 0l24 0 0 24 0 72 80 0 48 0 0 48 0 288 0 48-48 0L48 480 0 480l0-48L0 144 0 96l48 0 80 0 0-72 0-24zM336 48L176 48l0 48 160 0 0-48zM48 144l0 288 416 0 0-288-104 0-208 0L48 144zm257 55l72 72 17 17-17 17-72 72-17 17L254.1 360l17-17 31-31L152 312l-24 0 0-48 24 0 150.1 0-31-31-17-17L288 182.1l17 17z"/></svg>

<svg xmlns="http://www.w3.org/2000/svg" viewBox="0 0 512 512"><!--! Font Awesome Pro 6.5.2 by @fontawesome - https://fontawesome.com License - https://fontawesome.com/license (Commercial License) Copyright 2024 Fonticons, Inc. --><path d="M128 0h24H360h24V24 96h80 48v48V432v48H464 48 0V432 144 96H48h80V24 0zM336 48H176V96H336V48zM48 144V432H464V144H360 152 48zm257 55l72 72 17 17-17 17-72 72-17 17L254.1 360l17-17 31-31H152 128V264h24H302.1l-31-31-17-17L288 182.1l17 17z"/></svg>
